X:51
T:Carolan's Welcome
M:3/4
Q:200
L:1/8
K:Am
cB|A2 cd e2|A2 cd e2|de dc BA|(3GAB G2 E2|\
c3 B A2|d3 c B2| cE E2 G2|A4 cB|
A2 cd e2|A2 cd e2|de dc BA|(3GAB G2 E2|\
g3 f e2|a3 g ed|ce dc Bc|A4 e2|
e2 ab c'2|e2 ab c'2|c'b ag ab| c'2 e3 e|\
f2 ag ed|e2 ge dc|d2 e2 g2|a6|
ag eg a2|ge de g2| ed cd ec|d2 B2 G2|\
c3 B A2|d3 c B2|cE E2 G2|A4 ||
